X: 25734
T: Mary MacDonald's Delight
R: reel
M: 4/4
K: Amajor
|:A,2CE FECE|c2cB BAFB|AFEF A2Af|ecBA BcA2|
A,2CE FECE|c2cB BAFB|AFEF ABcf|1 ecBd cACB,:|2 ecBd cAef||
|:ecBc AFEF|A2ag fefa|ecBA cAFG|AFEC B,2cd|
ecBA cAFG|A2ag fefa|ecBA cAFG|1 AFEC EA,A,2|2AFEC EA,CB,||

